svg/SJJB-OpenStreetMapIcons/shopping/estateagent3.svg

<?xml version="1.0" encoding="UTF-8" standalone="no"?>
<!-- Created with Inkscape (http://www.inkscape.org/) -->

<svg
   xmlns:dc="http://purl.org/dc/elements/1.1/"
   xmlns:cc="http://creativecommons.org/ns#"
   xmlns:rdf="http://www.w3.org/1999/02/22-rdf-syntax-ns#"
   xmlns:svg="http://www.w3.org/2000/svg"
   xmlns="http://www.w3.org/2000/svg"
   xmlns:sodipodi="http://sodipodi.sourceforge.net/DTD/sodipodi-0.dtd"
   xmlns:inkscape="http://www.inkscape.org/namespaces/inkscape"
   version="1.0"
   width="580"
   height="580"
   id="svg2"
   sodipodi:version="0.32"
   inkscape:version="0.48.0 r9654"
   sodipodi:docname="shopping_estateagent3.svg"
   inkscape:output_extension="org.inkscape.output.svg.inkscape">
  <defs
     id="defs4209">
    <inkscape:perspective
       sodipodi:type="inkscape:persp3d"
       inkscape:vp_x="0 : 290 : 1"
       inkscape:vp_y="0 : 1000 : 0"
       inkscape:vp_z="580 : 290 : 1"
       inkscape:persp3d-origin="290 : 193.33333 : 1"
       id="perspective4211" />
    <inkscape:perspective
       id="perspective18813"
       inkscape:persp3d-origin="0.5 : 0.33333333 : 1"
       inkscape:vp_z="1 : 0.5 : 1"
       inkscape:vp_y="0 : 1000 : 0"
       inkscape:vp_x="0 : 0.5 : 1"
       sodipodi:type="inkscape:persp3d" />
  </defs>
  <metadata
     id="metadata2975">
    <rdf:RDF>
      <cc:Work
         rdf:about="">
        <dc:format>image/svg+xml</dc:format>
        <dc:type
           rdf:resource="http://purl.org/dc/dcmitype/StillImage" />
        <cc:license
           rdf:resource="http://web.resource.org/cc/PublicDomain" />
        <dc:language>en</dc:language>
        <dc:title />
      </cc:Work>
    </rdf:RDF>
  </metadata>
  <sodipodi:namedview
     inkscape:window-height="978"
     inkscape:window-width="1272"
     inkscape:pageshadow="2"
     inkscape:pageopacity="0.0"
     guidetolerance="10.0"
     gridtolerance="10.0"
     objecttolerance="10.0"
     borderopacity="1.0"
     bordercolor="#666666"
     pagecolor="#ffffff"
     id="base"
     inkscape:zoom="0.32586207"
     inkscape:cx="220.96811"
     inkscape:cy="250.61572"
     inkscape:window-x="0"
     inkscape:window-y="24"
     inkscape:current-layer="svg2"
     showgrid="false"
     inkscape:window-maximized="0" />
  <g
     id="g1327">
    <path
       d="M 66.275,1.768 C 24.94,1.768 1.704,23.139 1.704,66.804 L 1.704,516.927 C 1.704,557.771 22.599,579.156 63.896,579.156 L 515.92,579.156 C 557.227,579.156 578.149,558.841 578.149,516.927 L 578.149,66.804 C 578.149,24.203 557.227,1.768 514.628,1.768 C 514.624,1.768 66.133,1.625 66.275,1.768 z"
       style="fill:#111111;stroke:#eeeeee;stroke-width:3.40799999"
       id="path1329" />
  </g>
  <g
     id="g3338"
     transform="matrix(1.3973279,-0.2437849,0.2437849,1.3973279,-185.07402,-56.183307)" />
  <path
     style="opacity:0.25;fill:#ffffff;fill-opacity:1;stroke:none"
     d="M 284.88759,37.391085 L 506.42424,259.1516 L 449.15763,259.07272 L 449.15763,495.84689 L 119.42624,495.84689 L 119.42624,258.67795 L 65.40369,258.59908 L 136.69651,183.37166 L 136.69651,81.886561 L 207.93035,81.886561 L 207.93035,118.04615 L 284.88759,37.391197 L 284.88759,37.391085 z"
     id="path8920"
     sodipodi:nodetypes="ccccccccccccc" />
  <path
     sodipodi:nodetypes="ccccccccccccc"
     id="path18827"
     d="M 284.88759,37.391085 L 506.42424,259.1516 L 449.15763,259.07272 L 449.15763,495.84689 L 119.42624,495.84689 L 119.42624,258.67795 L 65.40369,258.59908 L 136.69651,183.37166 L 136.69651,81.886561 L 207.93035,81.886561 L 207.93035,118.04615 L 284.88759,37.391197 L 284.88759,37.391085 z"
     style="fill:none;stroke:#ffffff;stroke-width:8;stroke-linecap:round;stroke-linejoin:round;stroke-miterlimit:4;stroke-opacity:1;stroke-dasharray:none;stroke-dashoffset:0" />
  <g
     id="g9431"
     transform="matrix(1.2690826,0,0,1.2690826,-297.99173,-30.023062)">
    <path
       style="fill:#ffffff;fill-opacity:1;stroke:#ffffff;stroke-width:20;stroke-linecap:round;stroke-linejoin:round;stroke-miterlimit:4;stroke-opacity:1;stroke-dasharray:none;stroke-dashoffset:0"
       d="M 206.40625,274.09375 L 206.40625,538.75 L 213.09375,538.75 L 213.09375,392.25 L 365.125,392.25 L 365.125,290.46875 L 213.09375,290.46875 L 213.09375,274.09375 L 206.40625,274.09375 z"
       transform="matrix(0.78797078,0,0,0.78797078,241.79492,-36.527289)"
       id="rect3771"
       sodipodi:nodetypes="ccccccccc" />
  </g>
</svg>

<svg xmlns="http://www.w3.org/2000/svg" viewBox="0 0 580 580"><path d="m66.28 1.768c-41.34 0-64.57 21.371-64.57 65.04v450.12c0 40.844 20.895 62.23 62.19 62.23h452.02c41.31 0 62.23-20.315 62.23-62.23v-450.12c0-42.601-20.922-65.04-63.52-65.04-.004 0-448.5-.143-448.35 0z" fill="#111" stroke="#eee" stroke-width="3.408"/><path d="m284.89 37.39l221.54 221.76-57.27-.079v236.77h-329.73v-237.17l-54.02-.079 71.29-75.23v-101.49h71.23v36.16l76.957-80.65" opacity=".25" fill="#fff"/><g stroke="#fff" stroke-linejoin="round" stroke-linecap="round"><path d="m284.89 37.39l221.54 221.76-57.27-.079v236.77h-329.73v-237.17l-54.02-.079 71.29-75.23v-101.49h71.23v36.16l76.957-80.65z" fill="none" stroke-width="8"/><path d="m206.41 274.09v264.66h6.688v-146.5h152.03v-101.78h-152.03v-16.375h-6.688z" transform="translate(8.866-76.38)" fill="#fff" stroke-width="20"/></g></svg>
